X:106
T:Lass of Killiecrankie Highland
B:NFID.247b
106lass_k
S:JL
L:1/8
M:C
R:hornpipe
Q:270
K:A=G
eAA2 (3Bcd ef|eAA2 Bc [d2D2]|eAA2 (3Bcd ef|gedB A2A2:|
(3efg aa afef|gage dBe2|(3efg aa afef|gedB A2A2|
(3efg aa afef|gage dBe2|AA (3Bcd efef|gedB A2A2|]

%%%

